X:1
T:Laudate Dominum - Pitoni
T:#
%%score [ 1 2 3 4 ]
L:1/8
Q:1/4=200
M:none
K:C
V:1 treble nm="Soprano" snm="S"
V:2 treble nm="Alto" snm="A"
V:3 treble-8 nm="Tenor" snm="T"
V:4 bass nm="Bass" snm="B"
V:1
"^Laudate Dominum""^Giuseppe Ottavio Pitoni\n(1657-1743)""^Psalm 117 (Vulgate 116)" B16 | %1
w: Lau-|
 c4 c4 B6 B2 | B4 A8 A4 | ^G8 G8 | z4 A4 A4 B4 | c4 c4 B2 G2 c4- |[M:4/2] c4 B4 c4 c4- | %7
w: da- te Do- mi-|num o- mnes|gen- tes:|lau- da- te|e- um o- mnes po\-|* pu- li. Quo\-|
 c2 c2 d4 c4 B4 | A4 A4 B4 B4 | A4 G4 (A4 c4- | c4) B4 (A2 B2) c4- | c4 B4 z4 B4 | A6 A2 B8 | %13
w: * ni- am con- fir-|ma- ta est mi-|se- ri- cor\- *|* di- a * e\-|* ius: et|ve- ri- tas|
 c6 c2 B4 B4- | B4 B4 G4 E4 | A8 B4 B4- | B2 B2 B4 z4 c4- | c2 c2 c4 A8 | A4 G4 A4 B4 | %19
w: Do- mi- ni ma\-|* net in ae-|ter- num. Glo\-|* ri- a, glo\-|* ri- a Pa-|tri, et Fi- li-|
 ^G8 z4 G4- | G4 A4 B6 B2 | A4 (c8 B4) | c4 c2 c2 c4 d4 | A4 B4 c4 A4 | ^G4 G4 A8 | z4 B4 c4 c4 | %26
w: o, et|* Spi- ri- tu-|i san\- *|cto: Si- cut e- rat|in prin- ci- pi-|o, et nunc,|et nunc, et|
 _B8 c4 c2 c2 | c6 c2 c4 B4- | B4 B4 (c4 G4 | A8) G4[Q:1/4=198] (G4- | %30
w: sem- per, et in|sae- cu- la sae\-|* cu- lo\- *|* rum, A\-|
[Q:1/4=194] G4[Q:1/4=191] ^F4)[Q:1/4=187] G4[Q:1/4=184] (B4 |[Q:1/4=176] c16) | %32
w: * * men, A\-||
[Q:1/4=170] !fermata!B16 |] %33
w: men.|
V:2
 G16 | G4 ^F4 G6 G2 | G4 E8 D4 | E8 E8 | z4 E4 E4 G4 | G4 G4 G4 ^F4 |[M:4/2] G6 G2 G4 G4- | %7
w: Lau-|da- te Do- mi-|num o- mnes|gen- tes:|lau- da- te|e- um o- mnes|po- pu- li. Quo\-|
 G2 G2 G4 G4 G4 | G4 ^F4 G4 G4 | F4 E4 F6 A2 | G4 (G8 ^F4) | G8 z4 G4 | D4 A4 G8 | G6 G2 G4 G4- | %14
w: * ni- am con- fir-|ma- ta est mi-|se- ri- cor- di-|a e\- *|ius: et|ve- ri- tas|Do- mi- ni ma\-|
 G4 G4 E2 ^F2 (G4- | G4 ^F4) G4 G4- | G2 G2 G4 z4 G4- | G2 G2 G4 F8 | F4 G4 F4 F4 | E8 z4 E4- | %20
w: * net in ae- ter\-|* * num. Glo\-|* ri- a, glo\-|* ri- a Pa-|tri, et Fi- li-|o, et|
 E4 E4 G6 G2 | A8 G8 | G4 G2 G2 G4 G4 | F2 E2 E8 D4 | E4 E4 E8 | z4 G4 G6 A2 | F8 A4 A2 A2 | %27
w: * Spi- ri- tu-|i san-|cto: Si- cut e- rat|in prin- ci- pi-|o, et nunc,|et nunc, et|sem- per, et in|
 G6 G2 G4 G4- | G4 G4 G4 D4 | E16 | D8 (D4 G4- | G2 F2 E2 D2 C6 G2) | !fermata!G16 |] %33
w: sae- cu- la sae\-|* cu- lo- rum|A-|men, A\- *||men.|
V:3
 d16 | e4 c4 d6 d2 | d4 c8 A4 | B8 B8 | z4 c4 c4 d4 | e4 e4 d4 c4 | %6
w: Lau-|da- te Do- mi-|num o- mnes|gen- tes:|lau- da- te|e- um o- mnes|
[M:4/2][K:treble-8] d6 d2 e4 e4- | e2 e2 d4 e4 d4 | c4 d4 d4 d4 | c4 c4 c4 f4 | d8 c8 | d8 z4 d4 | %12
w: po- pu- li. Quo\-|* ni- am con- fir-|ma- ta est mi-|se- ri- cor- di-|a e-|ius: et|
 d6 d2 d8 | e6 e2 d4 e4- | e4 d4 c4 B4 | d8 d4 d4- | d2 d2 d4 z4 e4- | e2 e2 e4 c8 | c4 c4 c4 d4 | %19
w: ve- ri- tas|Do- mi- ni ma\-|* net in ae-|ter- num. Glo\-|* ri- a, glo\-|* ri- a Pa-|tri, et Fi- li-|
 B8 z4 B4- | B4 c4 d6 d2 | f8 d8 | e4 e2 e2 e4 d4 | c4 B4 A4 A4 | B4 B4 c8 | z4 d4 e6 f2 | %26
w: o, et|* Spi- ri- tu-|i san-|cto: Si- cut e- rat|in prin- ci- pi-|o, et nunc,|et nunc, et|
 d8 f4 f2 f2 | e6 e2 e4 d4- | d4 e4 e4 B4 | (c8 B4 c4 | A8) B4 (d4 | e16) | !fermata!d16 |] %33
w: sem- per, et in|sae- cu- la sae\-|* cu- lo- rum|A\- * *|* men, A\-||men.|
V:4
 G,16 | C4 A,4 G,6 G,2 | G,4 A,8 F,4 | E,8 E,8 | z4 A,4 A,4 G,4 | C4 C,4 G,4 A,4 | %6
w: Lau-|da- te Do- mi-|num o- mnes|gen- tes:|lau- da- te|e- um o- mnes|
[M:4/2] G,6 G,2 C,4 C4- | C2 C2 B,4 C4 G,4 | A,4 D,4 G,4 G,4 | A,4 C4 F,6 F,2 | G,8 A,8 | %11
w: po- pu- li. Quo\-|* ni- am con- fir-|ma- ta est mi-|se- ri- cor- di-|a e-|
 G,8 z4 G,4 | ^F,6 F,2 G,8 | C,6 C,2 G,4 E,4- | E,4 B,,4 C,4 E,4 | D,8 G,,4 G,4- | %16
w: ius: et|ve- ri- tas|Do- mi- ni ma\-|* net in ae-|ter- num. Glo\-|
 G,2 G,2 G,4 z4 C,4- | C,2 C,2 C,4 F,8 | F,4 E,4 F,4 D,4 | E,8 z4 E,4- | E,4 A,4 G,6 G,2 | %21
w: * ri- a, glo\-|* ri- a Pa-|tri, et Fi- li-|o, et|* Spi- ri- tu-|
 F,8 G,8 | C,4 C2 C2 C4 B,4 | A,4 G,4 F,6 F,2 | E,4 E,4 A,8 | z4 G,4 C6 A,2 | _B,8 F,4 F,2 F,2 | %27
w: i san-|cto: Si- cut e- rat|in prin- ci- pi-|o, et nunc,|et nunc, et|sem- per, et in|
 C6 C2 C,4 (G,4- | G,2 F,2 E,2 D,2 C,4) B,,4 | (A,,2 B,,2 C,2 D,2 E,4) C,4 | D,8 G,,4 (G,4 | %31
w: sae- cu- la sae\-|* * * * * cu-|lo\- * * * * rum,|A- men, A\-|
 C,16) | !fermata!G,,16 |] %33
w: |men.|

